X:1
T:James Gibb editions
T:Psalm 56 (Becker) - Schütz
%%score [ ( 1 2 ) ( 3 4 ) ]
L:1/8
Q:1/4=100
M:2/2
K:C
V:1 treble nm="Soprano Alto"
V:2 treble 
V:3 bass nm="Tenor Bass"
V:4 bass 
V:1
"^Cornelius Becker\n(1561-1604)""^Psalm 56, SWV 153""^Heinrich Schütz\n(1585-1672)" C4 G4 | %1
w: ~Herr Gott,|
w: ich streit|
 A2 B4 c2 | (d3 c B2) A2 | G4 G4 | A4 B2 c2- |[M:2/2] c2 A2 (G3 F | E2 A2 D4) | C8 :| G4 A4 | %9
w: er- zeig mir|Hülf * * und|Gnad, wenn|Men- schen mich|||||
w: und ängst mich|früh * * und|spat, die|Feind mich schmerz\-||||sie strei-|
 A2 B4 G2 | A2 c2 B4 | B4 c4 | A2 d4 B2 | c2 e2 d4 | d4 e4 | d2 c4 B2 | (A2 G2 c2 A2 x2 | d8) x6 | %18
w: |||||||||
w: ten täg- lich|wi- der- mich,|ich setz|||||||
 c8 |] %19
w: |
w: |
V:2
 C4 E4 | E2 G4 G2 | (G3 E G2) ^F2 | G4 E4 | C4 E2 E2- |[M:2/2] E2 F2 (E3 A, | CB, C4 B,2) | C8 :| %8
w: |||||* be- drän\- *||gen,|
w: |||||* lich krän\- *||ken.|
 E4 E4 | E2 G4 E2 | E2 E2 E4 | E4 E4 | E2 G4 G2 | G2 G2 G4 | G4 G4 | G2 E4 G2 | (F2 E4 F2 x2 | %17
w: ||||mein Hoff- nung|stets auf dich,|wenn ich|in Äng- sten|schwe\- * *|
w: |||||||||
 D3 E/F/ G4) x6 | G8 |] %19
w: |be.|
w: ||
V:3
 G,4 C4 | C2 E4 E2 | (B,3 C D2) D2 | D4 C4 | A,4 ^G,2 A,2- |[M:2/2] A,2 C2 (C3 F, | G,2 A,2 G,4) | %7
 G,8 :| C4 C4 | C2 E4 B,2 | C2 A,2 ^G,4 | ^G,4 A,4 | C2 B,4 D2 | %13
"^2. Ich hab dein Wort, des rühm ich mich, setz auf dich mein Vertrauen,\nich hoff in aller Not auf dich und laß mir gar nicht grauen.\nWas sollten mir tun Menschenkind, die nicht Gott, sondern Fleisch nur sind,\ndie armen Kreaturen?\n\n7. Ich will rühmen des Herren Wort, ja, sein Wort will ich rühmen,\nich hoff auf ihn, er ist mein Hort, kein Furcht will mir geziemen,\nwas können mir denn Menschen tun? Gott hab ichs g'lobt, der ist mein Ruhm,\nich will ihm allzeit danken.\n\n8. Du, treuer Herr, hast meine Seel errett von Tod und Höllen!\nMein Füß bewahr vor Ungefäll, da mir der Feind nachstellet,\ndein Gnad, Herr, und des Lebens Licht wird mir hie und dort mangeln nicht,\newig darin zu wallen.""^\n" E2 C2 B,4 | %14
 B,4 C4 | B,2 A,4 G,2 | (C3 DEA, C4 | B,A, B,4) C8 | x8 |] %19
V:4
 C,4 C,4 | A,,2 E,4 C,2 | (G,3 A, G,2) D,2 | G,,4 C,4 | F,4 E,2 A,2- |[M:2/2] A,2 F,2 (C,3 D, | %6
 C,2 F,,2 G,,4) | C,8 :| C,4 A,,4 | A,,2 E,4 E,2 | A,2 A,2 E,4 | E,4 A,4 | A,2 G,4 G,2 | %13
 C,2 C,2 G,4 | G,4 C,4 | G,2 A,4 E,2 | (F,2 C2 A,2 F,2 x2 | G,8) x6 | C,8 |] %19

